logos/ngx-cookieconsent.svg

<svg xmlns="http://www.w3.org/2000/svg" viewBox="0 0 250 250" width="250" height="250"><path d="M125 30v0 0l-93.1 33.2 14.2 123.1 78.9 43.7v0 0l78.9-43.7 14.2-123.1z" fill="#295298"/><path d="M125 30v22.2 -0.1 101.3 0 76.6 0l78.9-43.7 14.2-123.1z" fill="#039"/><path d="M124.5 58.5c0 0 0.1 0 0.1 0 0.1 0.2 0.6 1.4 1.1 2.7l0.8 2.5h5.9l-2.4 1.8 -2.4 1.8 0.9 2.6c0.5 1.4 0.9 2.7 0.8 2.7 -0.1 0.1-1.1-0.6-2.4-1.5l-2.3-1.6 -2.3 1.7c-1.3 0.9-2.3 1.5-2.3 1.3 0-0.2 0.3-1.3 0.7-2.4 0.4-1.2 0.7-2.3 0.7-2.5 0-0.2-1-1.2-2.2-2l-2.2-1.6 5.8-0.2 0.9-2.7c0.4-1.3 0.9-2.3 1-2.4zM156.2 67.3l0.7 2.5 3.1 0.2 3.1 0.2 -2.3 1.6c-1.2 0.9-2.3 1.9-2.3 2.2 0 0.3 0.3 1.5 0.7 2.7 0.4 1.2 0.6 2.2 0.6 2.3 0 0.1-1.1-0.6-2.3-1.4l-2.2-1.5 -2.1 1.4c-2.5 1.7-2.8 1.9-2.6 1.2v0c0.1-0.3 0.5-1.5 0.9-2.7l0.7-2.1 -1.4-1.1c-0.8-0.6-1.8-1.5-2.4-1.9l-0.9-0.8 3 0 3 0 0.8-2.5c0.5-1.4 0.9-2.5 1.1-2.5 0.1 0 0.6 1.1 0.9 2.5zM93.9 65.1c0 0 0.1 0 0.1 0 0.1 0.2 0.6 1.4 1.1 2.7l0.8 2.5 2.8 0.1 2.8 0.1 -2.2 1.7 -2.2 1.7 0.8 2.6c0.5 1.5 0.8 2.6 0.7 2.6 -0.1 0-1.1-0.7-2.3-1.5 -1.1-0.8-2.2-1.5-2.4-1.5 -0.1 0-1.2 0.7-2.2 1.5 -2 1.5-2.4 1.7-2.4 1.2 0-0.2 0.3-1.3 0.7-2.4 0.4-1.2 0.7-2.2 0.7-2.4 0-0.1-1-1-2.3-1.9l-2.3-1.7h5.9l0.9-2.7c0.4-1.3 0.9-2.3 1.1-2.5zM118.4 82.6c2.4 2.5 3.5 3 6.8 3.3 1.5 0.1 2.8 0.4 3 0.6 0.1 0.2 0.3 2.1 0.3 4.1 0 3.5 0.1 3.8 1.1 5.5 1.3 2.1 3.7 4 5.7 4.6 0.9 0.3 2.6 0.3 4.5 0.2l3-0.2 0.4 1c0.2 0.5 0.4 1.4 0.4 2 0 1.6 1 4.2 2.2 5.6 0.6 0.7 2 1.8 3.1 2.3 1.7 0.8 2.5 1 5.3 1 4 0.1 4.4 0.4 3.7 3 -1.7 6.3 1.6 10.4 8.4 10.4 1.2 0 1.8 0.2 1.9 0.6 0.9 2.4-1.2 11.4-4.1 17.1 -2.1 4.2-4.4 7.4-8 11.2 -6.8 7.1-15.3 11.5-24.9 12.9 -3.2 0.5-9.1 0.6-11.3 0.3 -10.1-1.5-17.9-5.2-24.8-11.7 -6.2-5.9-10.5-13.1-12.8-21.8 -1.1-4.2-1.4-13.4-0.5-17.9 2.9-15.5 13.1-28 27.5-33.6 1.7-0.7 4.1-1.4 5.3-1.7l2.2-0.4zM110.3 86.4c-8.4 3.2-16.5 10.5-20.8 18.6 -2.5 4.8-2.5 4.6-0.2 5.3 4 1.3 6.4 4.5 6.4 8.4 0 2.6-0.9 4.6-2.8 6.4 -1.7 1.6-2.7 2-5.8 2.3l-2.4 0.2 0.2 1.5c0.4 2.8 1.9 8.1 3.2 11 2.7 6.3 7.7 12.5 14 17 2 1.5 7.5 4.3 8.3 4.3 0.3 0 1-0.8 1.7-1.8 2.6-4 7-5.7 11.4-4.4 2.6 0.7 5.9 4.4 6.7 7.4 0.2 1 0.3 1 2 0.8 0.9-0.1 3-0.6 4.6-1.2 10.3-3.4 19-10.9 23.9-20.5 1.5-2.9 3.2-8.1 3.5-10.6 0.2-1.7 0.2-1.9-0.5-1.9 -1.8 0-4.5-1.2-6.3-2.8 -2.3-2.1-3.5-4.5-3.8-7.8l-0.2-2.4 -1.9-0.2c-2.8-0.3-6.1-2.1-8.2-4.4 -1.6-1.7-2.3-3-3.5-6.6 -0.1-0.2-1.3-0.5-2.8-0.6 -6.6-0.4-11.4-5.1-12.4-12.2 -0.3-2.2-0.5-2.7-1-2.7 -1.4 0-4.7-1.5-6.5-3.1 -1.1-0.9-1.6-1.4-2.4-1.4 -0.8 0-1.9 0.4-4.2 1.3zM72.7 87.4c0.1 0 0.6 1.1 1 2.5l0.8 2.5 3 0.1 3 0.1 -2.3 1.6c-1.2 0.9-2.3 1.8-2.3 2 0 0.2 0.3 1.4 0.7 2.5 0.4 1.2 0.7 2.3 0.7 2.5 0 0.2-1.1-0.4-2.4-1.3l-2.4-1.7 -1.9 1.4c-2.7 2-3 2.1-2.8 1.5 0.1-0.3 0.5-1.5 0.8-2.7l0.6-2.2 -1.2-1.1c-0.7-0.6-1.7-1.5-2.3-1.9l-1.1-0.8 3 0 3 0 0.8-2.5c0.5-1.4 0.9-2.5 1-2.5zM177.3 90.1l0.8 2.3 3 0.1 3 0.1 -2.2 1.6c-1.2 0.9-2.2 1.9-2.2 2.2 0 0.3 0.3 1.5 0.6 2.6 0.3 1.1 0.5 2.1 0.4 2.2 -0.1 0.1-1.1-0.5-2.2-1.3 -1.3-1-2.2-1.4-2.5-1.2 -0.3 0.2-1.3 0.9-2.4 1.7 -1 0.8-1.9 1.3-1.9 1.1 0-0.2 0.3-1.4 0.8-2.8 0.9-2.8 1.1-2.3-2.2-4.7l-1.6-1.2 2.9-0.1 2.9-0.1 0.8-2.6c0.5-1.4 0.9-2.5 1.1-2.3 0.1 0.1 0.6 1.3 1 2.5zM119.5 101.4c0 2.2-0.5 3.5-1.9 5 -2.3 2.5-6.2 3-8.9 1.3 -2.3-1.5-3.4-3.5-3.4-6.1 0-3.7 2-6.3 5.4-7.2 0.6-0.1 1.1-0.2 1.6-0.2 3.8 0 7.2 3.2 7.2 7.2zM109.4 99.8c-0.7 1.5-0.7 2.3 0.2 3.5 1.4 1.7 3.3 2 4.8 0.6 1.7-1.5 1.4-4.3-0.5-5.4 -0.7-0.4-1.4-0.5-2-0.5 -1 0.1-1.9 0.7-2.5 1.8zM85.6 115.9c-0.5 2.3-0.7 6.6-0.3 7.3 0.4 0.7 3.1 0.5 4.4-0.3 4-2.4 2.3-8.8-2.3-8.9 -1.3 0-1.3 0-1.8 2zM185.5 121.5l0.9 2.8 2.9 0.1 2.9 0.1 -2.2 1.6c-1.2 0.9-2.2 1.6-2.3 1.7 0 0 0.3 1.3 0.7 2.7 0.4 1.5 0.7 2.7 0.6 2.8 -0.1 0-1-0.5-2.1-1.3 -1.1-0.8-2.2-1.4-2.5-1.4 -0.3 0-1.3 0.6-2.3 1.3 -2.5 1.9-2.5 1.9-1.3-2.1l0.5-1.7 -2.4-1.8 -2.4-1.8 3-0.1 3-0.1 0.9-2.7 0.9-2.7zM65.1 121.6l0.9 2.8h2.9c1.6 0 2.9 0.1 2.9 0.3 0 0.2-0.4 0.6-1 0.9 -0.5 0.3-1.5 1.1-2.2 1.6l-1.2 1 0.7 2.4c0.4 1.3 0.7 2.5 0.7 2.7 0 0.2-1-0.4-2.3-1.4l-2.3-1.6 -2.1 1.6c-1.2 0.9-2.3 1.6-2.4 1.6 -0.1 0 0.2-1.2 0.6-2.6 1-3 1.1-2.9-1.9-4.9l-2-1.4 3-0.2 3-0.2 1-2.7 1-2.7zM122.1 121.9c2.5 1.2 4.4 3.3 5.7 6 0.8 1.7 0.9 2.4 0.8 5 -0.1 3.5-1 5.6-3.3 7.9 -2.7 2.8-7.4 4.2-10.9 3.2 -3.8-1.1-6.3-3.2-8-6.8 -2.6-5.6 0.2-12.7 6.1-15.4 1.3-0.6 3-0.9 4.8-0.8 1.7 0 3.5 0.4 4.9 1.1zM116.7 124.7c-5.5 0.3-9.2 6-6.7 11.2 2 4.1 7 5.6 11 3.3 6.4-3.7 4.1-13.8-3.2-14.4 -0.4 0-0.8 0-1.1 0zM153.5 138.4c0 4-3.1 7.1-7.1 7 -1.1 0-2.4-0.2-2.9-0.4 -2.4-0.9-4.4-4-4.4-6.8 0-4.1 3-7.1 7-7.1 4.4 0 7.3 2.9 7.3 7.2zM143.2 137.2c-0.5 1.5-0.1 2.8 1.3 3.8 1.2 0.9 2 1 3.4 0.3 1.9-1 2.3-3.8 0.9-5.4 -0.6-0.6-1.4-0.9-2.2-0.9 -1.4 0-2.9 0.8-3.3 2.2zM72.4 148.2c0.1 0.1 0.6 1.2 1 2.5l0.8 2.3 2.6 0.2c1.4 0.1 2.7 0.3 2.8 0.4 0.1 0.1-0.7 0.9-1.8 1.7 -1.1 0.8-2 1.7-2 2 0 0.2 0.3 1.4 0.7 2.6 0.4 1.2 0.6 2.2 0.6 2.3 -0.1 0.1-1.1-0.6-2.3-1.4l-2.2-1.6 -2.2 1.5c-2 1.4-2.6 1.7-2.6 1.4 0-0.1 0.3-1.1 0.7-2.2 0.4-1.2 0.7-2.3 0.7-2.6 0-0.3-1-1.2-2.2-2.1 -1.9-1.4-2.1-1.6-1.4-1.8 0.4-0.1 1.7-0.2 2.9-0.2l2.1 0 0.8-2.5c0.5-1.4 0.9-2.5 1-2.3zM177.7 150.7l0.8 2.3 2.6 0.2c1.4 0.1 2.7 0.3 2.8 0.4 0.1 0.1-0.8 0.9-2 1.8l-2.2 1.5 0.8 2.7c0.5 1.5 0.8 2.7 0.7 2.7 -0.1 0-1.1-0.7-2.3-1.5l-2.1-1.5 -2.1 1.4c-2.5 1.7-2.6 1.8-2.6 1.3 0-0.2 0.3-1.3 0.7-2.5 0.4-1.2 0.7-2.2 0.7-2.4 0-0.1-1-1-2.2-1.9l-2.2-1.6 3-0.3 2.9-0.3 0.8-2.5c0.4-1.4 0.9-2.4 1-2.3 0.1 0.1 0.6 1.2 1 2.5zM117 160.1c-1.5 1.1-2.2 2.4-1.7 2.9 0.9 0.9 11.1 1.5 11.1 0.7 0-0.2-0.3-1-0.6-1.7 -0.9-1.9-3-3.1-5.1-3.1 -1.3 0-2.6 0.3-3.7 1.1zM94.7 169.4c0.1 0.2 0.5 1.2 0.8 2.3 0.4 1.1 0.8 2.2 1 2.5 0.2 0.3 1.3 0.5 3 0.5l2.6 0 -1.3 1c-0.7 0.5-1.7 1.3-2.2 1.8l-0.9 0.8 0.8 2.7c0.4 1.5 0.8 2.7 0.7 2.7 0 0-0.9-0.6-1.9-1.3 -1-0.8-2.1-1.5-2.4-1.6 -0.4-0.1-1.4 0.4-2.7 1.3 -1.1 0.8-2.1 1.5-2.2 1.4 -0.1-0.1 0.2-1.2 0.6-2.4 0.4-1.3 0.7-2.4 0.7-2.6 0-0.2-0.9-1-2.1-1.9l-2.1-1.6 2.7-0.2 2.7-0.2 1-2.7c0.5-1.3 0.9-2.3 1.1-2.4 0 0 0.1 0 0.1 0zM154.4 169.4c0 0 0.1 0 0.1 0 0.1 0.2 0.6 1.2 0.9 2.3 0.4 1.1 0.8 2.2 1 2.5 0.2 0.3 1.4 0.5 3.1 0.5h2.7l-2.2 1.6c-1.2 0.9-2.2 1.9-2.2 2.1 0 0.3 0.3 1.5 0.7 2.6 0.4 1.2 0.7 2.2 0.6 2.3 -0.1 0.1-1.1-0.5-2.2-1.3 -1.1-0.8-2.1-1.5-2.3-1.5 -0.2 0-1.2 0.7-2.4 1.5 -1.1 0.8-2.1 1.5-2.2 1.5 -0.1 0 0.1-0.8 0.4-1.7 1.1-3.6 1.2-3.5-1.1-5.2l-2.1-1.6 2.6-0.1c1.5-0.1 2.7-0.3 2.9-0.5 0.2-0.2 0.6-1.5 1-2.7 0.3-1.1 0.7-1.9 0.9-2zM124.9 178.9c0.2 0.1 0.6 1.1 1.1 2.4l1 2.7 2.9 0.1 2.9 0.1 -2.2 1.6c-1.2 0.9-2.2 1.8-2.2 1.9 0 0.2 0.3 1.3 0.7 2.5 0.4 1.2 0.7 2.3 0.6 2.4 0 0.2-1-0.4-2.1-1.2 -1.1-0.8-2.2-1.4-2.4-1.5 -0.2 0-1.3 0.6-2.4 1.5 -1.1 0.8-2.2 1.5-2.3 1.5 -0.1 0 0.1-1 0.5-2.2 0.4-1.2 0.7-2.5 0.7-2.9 0-0.4-0.9-1.2-2.1-2.1l-2.1-1.4 2.8-0.1 2.8-0.1 0.8-2.4c0.4-1.3 0.9-2.6 1-2.8 0 0 0 0 0.1 0z" fill="#fff"/></svg>

<?xml version="1.0" encoding="utf-8"?>
<svg viewBox="31.9 30 186.2 200" width="186.2" height="200" xmlns="http://www.w3.org/2000/svg">
  <g>
    <path d="M 125 30 L 125 30 L 125 30 L 31.9 63.2 L 46.1 186.3 L 125 230 L 125 230 L 125 230 L 203.9 186.3 L 218.1 63.2 Z" fill="#295298"/>
    <path d="M 125 30 L 125 52.2 L 125 52.1 L 125 153.4 L 125 153.4 L 125 230 L 125 230 L 203.9 186.3 L 218.1 63.2 Z" fill="#039"/>
    <path d="M 124.5 58.5 C 124.5 58.5 124.6 58.5 124.6 58.5 C 124.7 58.7 125.2 59.9 125.7 61.2 L 126.5 63.7 L 132.4 63.7 L 130 65.5 L 127.6 67.3 L 128.5 69.9 C 129 71.3 129.4 72.6 129.3 72.6 C 129.2 72.7 128.2 72 126.9 71.1 L 124.6 69.5 L 122.3 71.2 C 121 72.1 120 72.7 120 72.5 C 120 72.3 120.3 71.2 120.7 70.1 C 121.1 68.9 121.4 67.8 121.4 67.6 C 121.4 67.4 120.4 66.4 119.2 65.6 L 117 64 L 122.8 63.8 L 123.7 61.1 C 124.1 59.8 124.6 58.8 124.7 58.7 Z M 156.2 67.3 L 156.9 69.8 L 160 70 L 163.1 70.2 L 160.8 71.8 C 159.6 72.7 158.5 73.7 158.5 74 C 158.5 74.3 158.8 75.5 159.2 76.7 C 159.6 77.9 159.8 78.9 159.8 79 C 159.8 79.1 158.7 78.4 157.5 77.6 L 155.3 76.1 L 153.2 77.5 C 150.7 79.2 150.4 79.4 150.6 78.7 L 150.6 78.7 C 150.7 78.4 151.1 77.2 151.5 76 L 152.2 73.9 L 150.8 72.8 C 150 72.2 149 71.3 148.4 70.9 L 147.5 70.1 L 150.5 70.1 L 153.5 70.1 L 154.3 67.6 C 154.8 66.2 155.2 65.1 155.4 65.1 C 155.5 65.1 156 66.2 156.3 67.6 Z M 93.9 65.1 C 93.9 65.1 94 65.1 94 65.1 C 94.1 65.3 94.6 66.5 95.1 67.8 L 95.9 70.3 L 98.7 70.4 L 101.5 70.5 L 99.3 72.2 L 97.1 73.9 L 97.9 76.5 C 98.4 78 98.7 79.1 98.6 79.1 C 98.5 79.1 97.5 78.4 96.3 77.6 C 95.2 76.8 94.1 76.1 93.9 76.1 C 93.8 76.1 92.7 76.8 91.7 77.6 C 89.7 79.1 89.3 79.3 89.3 78.8 C 89.3 78.6 89.6 77.5 90 76.4 C 90.4 75.2 90.7 74.2 90.7 74 C 90.7 73.9 89.7 73 88.4 72.1 L 86.1 70.4 L 92 70.4 L 92.9 67.7 C 93.3 66.4 93.8 65.4 94 65.2 Z M 118.4 82.6 C 120.8 85.1 121.9 85.6 125.2 85.9 C 126.7 86 128 86.3 128.2 86.5 C 128.3 86.7 128.5 88.6 128.5 90.6 C 128.5 94.1 128.6 94.4 129.6 96.1 C 130.9 98.2 133.3 100.1 135.3 100.7 C 136.2 101 137.9 101 139.8 100.9 L 142.8 100.7 L 143.2 101.7 C 143.4 102.2 143.6 103.1 143.6 103.7 C 143.6 105.3 144.6 107.9 145.8 109.3 C 146.4 110 147.8 111.1 148.9 111.6 C 150.6 112.4 151.4 112.6 154.2 112.6 C 158.2 112.7 158.6 113 157.9 115.6 C 156.2 121.9 159.5 126 166.3 126 C 167.5 126 168.1 126.2 168.2 126.6 C 169.1 129 167 138 164.1 143.7 C 162 147.9 159.7 151.1 156.1 154.9 C 149.3 162 140.8 166.4 131.2 167.8 C 128 168.3 122.1 168.4 119.9 168.1 C 109.8 166.6 102 162.9 95.1 156.4 C 88.9 150.5 84.6 143.3 82.3 134.6 C 81.2 130.4 80.9 121.2 81.8 116.7 C 84.7 101.2 94.9 88.7 109.3 83.1 C 111 82.4 113.4 81.7 114.6 81.4 L 116.8 81 Z M 110.3 86.4 C 101.9 89.6 93.8 96.9 89.5 105 C 87 109.8 87 109.6 89.3 110.3 C 93.3 111.6 95.7 114.8 95.7 118.7 C 95.7 121.3 94.8 123.3 92.9 125.1 C 91.2 126.7 90.2 127.1 87.1 127.4 L 84.7 127.6 L 84.9 129.1 C 85.3 131.9 86.8 137.2 88.1 140.1 C 90.8 146.4 95.8 152.6 102.1 157.1 C 104.1 158.6 109.6 161.4 110.4 161.4 C 110.7 161.4 111.4 160.6 112.1 159.6 C 114.7 155.6 119.1 153.9 123.5 155.2 C 126.1 155.9 129.4 159.6 130.2 162.6 C 130.4 163.6 130.5 163.6 132.2 163.4 C 133.1 163.3 135.2 162.8 136.8 162.2 C 147.1 158.8 155.8 151.3 160.7 141.7 C 162.2 138.8 163.9 133.6 164.2 131.1 C 164.4 129.4 164.4 129.2 163.7 129.2 C 161.9 129.2 159.2 128 157.4 126.4 C 155.1 124.3 153.9 121.9 153.6 118.6 L 153.4 116.2 L 151.5 116 C 148.7 115.7 145.4 113.9 143.3 111.6 C 141.7 109.9 141 108.6 139.8 105 C 139.7 104.8 138.5 104.5 137 104.4 C 130.4 104 125.6 99.3 124.6 92.2 C 124.3 90 124.1 89.5 123.6 89.5 C 122.2 89.5 118.9 88 117.1 86.4 C 116 85.5 115.5 85 114.7 85 C 113.9 85 112.8 85.4 110.5 86.3 Z M 72.7 87.4 C 72.8 87.4 73.3 88.5 73.7 89.9 L 74.5 92.4 L 77.5 92.5 L 80.5 92.6 L 78.2 94.2 C 77 95.1 75.9 96 75.9 96.2 C 75.9 96.4 76.2 97.6 76.6 98.7 C 77 99.9 77.3 101 77.3 101.2 C 77.3 101.4 76.2 100.8 74.9 99.9 L 72.5 98.2 L 70.6 99.6 C 67.9 101.6 67.6 101.7 67.8 101.1 C 67.9 100.8 68.3 99.6 68.6 98.4 L 69.2 96.2 L 68 95.1 C 67.3 94.5 66.3 93.6 65.7 93.2 L 64.6 92.4 L 67.6 92.4 L 70.6 92.4 L 71.4 89.9 C 71.9 88.5 72.3 87.4 72.4 87.4 Z M 177.3 90.1 L 178.1 92.4 L 181.1 92.5 L 184.1 92.6 L 181.9 94.2 C 180.7 95.1 179.7 96.1 179.7 96.4 C 179.7 96.7 180 97.9 180.3 99 C 180.6 100.1 180.8 101.1 180.7 101.2 C 180.6 101.3 179.6 100.7 178.5 99.9 C 177.2 98.9 176.3 98.5 176 98.7 C 175.7 98.9 174.7 99.6 173.6 100.4 C 172.6 101.2 171.7 101.7 171.7 101.5 C 171.7 101.3 172 100.1 172.5 98.7 C 173.4 95.9 173.6 96.4 170.3 94 L 168.7 92.8 L 171.6 92.7 L 174.5 92.6 L 175.3 90 C 175.8 88.6 176.2 87.5 176.4 87.7 C 176.5 87.8 177 89 177.4 90.2 Z M 119.5 101.4 C 119.5 103.6 119 104.9 117.6 106.4 C 115.3 108.9 111.4 109.4 108.7 107.7 C 106.4 106.2 105.3 104.2 105.3 101.6 C 105.3 97.9 107.3 95.3 110.7 94.4 C 111.3 94.3 111.8 94.2 112.3 94.2 C 116.1 94.2 119.5 97.4 119.5 101.4 Z M 109.4 99.8 C 108.7 101.3 108.7 102.1 109.6 103.3 C 111 105 112.9 105.3 114.4 103.9 C 116.1 102.4 115.8 99.6 113.9 98.5 C 113.2 98.1 112.5 98 111.9 98 C 110.9 98.1 110 98.7 109.4 99.8 Z M 85.6 115.9 C 85.1 118.2 84.9 122.5 85.3 123.2 C 85.7 123.9 88.4 123.7 89.7 122.9 C 93.7 120.5 92 114.1 87.4 114 C 86.1 114 86.1 114 85.6 116 Z M 185.5 121.5 L 186.4 124.3 L 189.3 124.4 L 192.2 124.5 L 190 126.1 C 188.8 127 187.8 127.7 187.7 127.8 C 187.7 127.8 188 129.1 188.4 130.5 C 188.8 132 189.1 133.2 189 133.3 C 188.9 133.3 188 132.8 186.9 132 C 185.8 131.2 184.7 130.6 184.4 130.6 C 184.1 130.6 183.1 131.2 182.1 131.9 C 179.6 133.8 179.6 133.8 180.8 129.8 L 181.3 128.1 L 178.9 126.3 L 176.5 124.5 L 179.5 124.4 L 182.5 124.3 L 183.4 121.6 L 184.3 118.9 Z M 65.1 121.6 L 66 124.4 L 68.9 124.4 C 70.5 124.4 71.8 124.5 71.8 124.7 C 71.8 124.9 71.4 125.3 70.8 125.6 C 70.3 125.9 69.3 126.7 68.6 127.2 L 67.4 128.2 L 68.1 130.6 C 68.5 131.9 68.8 133.1 68.8 133.3 C 68.8 133.5 67.8 132.9 66.5 131.9 L 64.2 130.3 L 62.1 131.9 C 60.9 132.8 59.8 133.5 59.7 133.5 C 59.6 133.5 59.9 132.3 60.3 130.9 C 61.3 127.9 61.4 128 58.4 126 L 56.4 124.6 L 59.4 124.4 L 62.4 124.2 L 63.4 121.5 L 64.4 118.8 Z M 122.1 121.9 C 124.6 123.1 126.5 125.2 127.8 127.9 C 128.6 129.6 128.7 130.3 128.6 132.9 C 128.5 136.4 127.6 138.5 125.3 140.8 C 122.6 143.6 117.9 145 114.4 144 C 110.6 142.9 108.1 140.8 106.4 137.2 C 103.8 131.6 106.6 124.5 112.5 121.8 C 113.8 121.2 115.5 120.9 117.3 121 C 119 121 120.8 121.4 122.2 122.1 Z M 116.7 124.7 C 111.2 125 107.5 130.7 110 135.9 C 112 140 117 141.5 121 139.2 C 127.4 135.5 125.1 125.4 117.8 124.8 C 117.4 124.8 117 124.8 116.7 124.8 Z M 153.5 138.4 C 153.5 142.4 150.4 145.5 146.4 145.4 C 145.3 145.4 144 145.2 143.5 145 C 141.1 144.1 139.1 141 139.1 138.2 C 139.1 134.1 142.1 131.1 146.1 131.1 C 150.5 131.1 153.4 134 153.4 138.3 Z M 143.2 137.2 C 142.7 138.7 143.1 140 144.5 141 C 145.7 141.9 146.5 142 147.9 141.3 C 149.8 140.3 150.2 137.5 148.8 135.9 C 148.2 135.3 147.4 135 146.6 135 C 145.2 135 143.7 135.8 143.3 137.2 Z M 72.4 148.2 C 72.5 148.3 73 149.4 73.4 150.7 L 74.2 153 L 76.8 153.2 C 78.2 153.3 79.5 153.5 79.6 153.6 C 79.7 153.7 78.9 154.5 77.8 155.3 C 76.7 156.1 75.8 157 75.8 157.3 C 75.8 157.5 76.1 158.7 76.5 159.9 C 76.9 161.1 77.1 162.1 77.1 162.2 C 77 162.3 76 161.6 74.8 160.8 L 72.6 159.2 L 70.4 160.7 C 68.4 162.1 67.8 162.4 67.8 162.1 C 67.8 162 68.1 161 68.5 159.9 C 68.9 158.7 69.2 157.6 69.2 157.3 C 69.2 157 68.2 156.1 67 155.2 C 65.1 153.8 64.9 153.6 65.6 153.4 C 66 153.3 67.3 153.2 68.5 153.2 L 70.6 153.2 L 71.4 150.7 C 71.9 149.3 72.3 148.2 72.4 148.4 Z M 177.7 150.7 L 178.5 153 L 181.1 153.2 C 182.5 153.3 183.8 153.5 183.9 153.6 C 184 153.7 183.1 154.5 181.9 155.4 L 179.7 156.9 L 180.5 159.6 C 181 161.1 181.3 162.3 181.2 162.3 C 181.1 162.3 180.1 161.6 178.9 160.8 L 176.8 159.3 L 174.7 160.7 C 172.2 162.4 172.1 162.5 172.1 162 C 172.1 161.8 172.4 160.7 172.8 159.5 C 173.2 158.3 173.5 157.3 173.5 157.1 C 173.5 157 172.5 156.1 171.3 155.2 L 169.1 153.6 L 172.1 153.3 L 175 153 L 175.8 150.5 C 176.2 149.1 176.7 148.1 176.8 148.2 C 176.9 148.3 177.4 149.4 177.8 150.7 Z M 117 160.1 C 115.5 161.2 114.8 162.5 115.3 163 C 116.2 163.9 126.4 164.5 126.4 163.7 C 126.4 163.5 126.1 162.7 125.8 162 C 124.9 160.1 122.8 158.9 120.7 158.9 C 119.4 158.9 118.1 159.2 117 160 Z M 94.7 169.4 C 94.8 169.6 95.2 170.6 95.5 171.7 C 95.9 172.8 96.3 173.9 96.5 174.2 C 96.7 174.5 97.8 174.7 99.5 174.7 L 102.1 174.7 L 100.8 175.7 C 100.1 176.2 99.1 177 98.6 177.5 L 97.7 178.3 L 98.5 181 C 98.9 182.5 99.3 183.7 99.2 183.7 C 99.2 183.7 98.3 183.1 97.3 182.4 C 96.3 181.6 95.2 180.9 94.9 180.8 C 94.5 180.7 93.5 181.2 92.2 182.1 C 91.1 182.9 90.1 183.6 90 183.5 C 89.9 183.4 90.2 182.3 90.6 181.1 C 91 179.8 91.3 178.7 91.3 178.5 C 91.3 178.3 90.4 177.5 89.2 176.6 L 87.1 175 L 89.8 174.8 L 92.5 174.6 L 93.5 171.9 C 94 170.6 94.4 169.6 94.6 169.5 C 94.6 169.5 94.7 169.5 94.7 169.5 Z M 154.4 169.4 C 154.4 169.4 154.5 169.4 154.5 169.4 C 154.6 169.6 155.1 170.6 155.4 171.7 C 155.8 172.8 156.2 173.9 156.4 174.2 C 156.6 174.5 157.8 174.7 159.5 174.7 L 162.2 174.7 L 160 176.3 C 158.8 177.2 157.8 178.2 157.8 178.4 C 157.8 178.7 158.1 179.9 158.5 181 C 158.9 182.2 159.2 183.2 159.1 183.3 C 159 183.4 158 182.8 156.9 182 C 155.8 181.2 154.8 180.5 154.6 180.5 C 154.4 180.5 153.4 181.2 152.2 182 C 151.1 182.8 150.1 183.5 150 183.5 C 149.9 183.5 150.1 182.7 150.4 181.8 C 151.5 178.2 151.6 178.3 149.3 176.6 L 147.2 175 L 149.8 174.9 C 151.3 174.8 152.5 174.6 152.7 174.4 C 152.9 174.2 153.3 172.9 153.7 171.7 C 154 170.6 154.4 169.8 154.6 169.7 Z M 124.9 178.9 C 125.1 179 125.5 180 126 181.3 L 127 184 L 129.9 184.1 L 132.8 184.2 L 130.6 185.8 C 129.4 186.7 128.4 187.6 128.4 187.7 C 128.4 187.9 128.7 189 129.1 190.2 C 129.5 191.4 129.8 192.5 129.7 192.6 C 129.7 192.8 128.7 192.2 127.6 191.4 C 126.5 190.6 125.4 190 125.2 189.9 C 125 189.9 123.9 190.5 122.8 191.4 C 121.7 192.2 120.6 192.9 120.5 192.9 C 120.4 192.9 120.6 191.9 121 190.7 C 121.4 189.5 121.7 188.2 121.7 187.8 C 121.7 187.4 120.8 186.6 119.6 185.7 L 117.5 184.3 L 120.3 184.2 L 123.1 184.1 L 123.9 181.7 C 124.3 180.4 124.8 179.1 124.9 178.9 C 124.9 178.9 124.9 178.9 125 178.9 Z" fill="#fff"/>
  </g>
</svg>
